X:69
T:Hickey's Reel
K:D
R:reel
M:C|
L:1/8
d2cA B~E3 | (3(FED) AD FDFA | d2ed c~E3 | (3(Bcd) Ec dAFA :|
d2fd adfd | d2fd BAFA |1 d2fd adfd | d2ed cABc :|2 d2fd cdec | BABc dAFA ||